images/Humanity/actions/16/media-playback-pause.svg

<?xml version="1.0" encoding="UTF-8" standalone="no"?>
<!-- Created with Inkscape (http://www.inkscape.org/) -->
<svg id="svg2829" xmlns="http://www.w3.org/2000/svg" height="16" width="16" version="1.0" xmlns:xlink="http://www.w3.org/1999/xlink">
 <defs id="defs2831">
  <linearGradient id="linearGradient3615">
   <stop id="stop3617" style="stop-color:#eeeeec" offset="0"/>
   <stop id="stop3619" style="stop-color:#babdb6" offset=".69580"/>
   <stop id="stop3621" style="stop-color:#a1a59b" offset="1"/>
  </linearGradient>
  <linearGradient id="linearGradient2782">
   <stop id="stop2784" style="stop-color:#fff" offset="0"/>
   <stop id="stop2786" style="stop-color:#fff;stop-opacity:0" offset="1"/>
  </linearGradient>
  <linearGradient id="linearGradient3627" y2="45.849" xlink:href="#linearGradient3615" gradientUnits="userSpaceOnUse" x2="-11.448" gradientTransform="matrix(.36755 0 0 .36638 8.2056 -1.7938)" y1="10.344" x1="-11.448"/>
  <linearGradient id="linearGradient3629" y2="52.94" xlink:href="#linearGradient2782" gradientUnits="userSpaceOnUse" x2="10.44" gradientTransform="matrix(.29583 0 0 .33661 8.2499 -1.1702)" y1="9.9657" x1="10.44"/>
  <linearGradient id="linearGradient3635" y2="45.849" xlink:href="#linearGradient3615" gradientUnits="userSpaceOnUse" x2="-11.448" gradientTransform="matrix(.36755 0 0 .36638 16.206 -1.7938)" y1="10.344" x1="-11.448"/>
  <linearGradient id="linearGradient3637" y2="52.94" xlink:href="#linearGradient2782" gradientUnits="userSpaceOnUse" x2="10.44" gradientTransform="matrix(.29583 0 0 .33661 16.25 -1.1702)" y1="9.9657" x1="10.44"/>
 </defs>
 <g id="layer1">
  <path id="path3623" style="stroke-linejoin:round;fill-rule:evenodd;stroke:#888a86;stroke-linecap:round;stroke-width:1.0007;fill:url(#linearGradient3627)" d="m1.5004 1.5004v12.999h4.9993v-12.999h-4.9993z"/>
  <path id="path3625" style="opacity:0.41;stroke-opacity:.97255;stroke:url(#linearGradient3629);stroke-linecap:round;stroke-width:1.0013;fill:none" d="m2.5007 2.5007v10.999l2.9983-0.0154v-10.983h-2.9983z"/>
  <path id="path3631" style="stroke-linejoin:round;fill-rule:evenodd;stroke:#888a86;stroke-linecap:round;stroke-width:1.0007;fill:url(#linearGradient3635)" d="m9.5004 1.5004v12.999h4.9993v-12.999h-4.9993z"/>
  <path id="path3633" style="opacity:0.41;stroke-opacity:.97255;stroke:url(#linearGradient3637);stroke-linecap:round;stroke-width:1.0013;fill:none" d="m10.501 2.5007v10.999l2.9983-0.0154v-10.983h-2.9983z"/>
 </g>
</svg>

<?xml version="1.0" encoding="UTF-8" standalone="no"?>
<!-- Created with Inkscape (http://www.inkscape.org/) -->

<svg
   xmlns:dc="http://purl.org/dc/elements/1.1/"
   xmlns:cc="http://creativecommons.org/ns#"
   xmlns:rdf="http://www.w3.org/1999/02/22-rdf-syntax-ns#"
   xmlns:svg="http://www.w3.org/2000/svg"
   xmlns="http://www.w3.org/2000/svg"
   xmlns:xlink="http://www.w3.org/1999/xlink"
   xmlns:sodipodi="http://sodipodi.sourceforge.net/DTD/sodipodi-0.dtd"
   xmlns:inkscape="http://www.inkscape.org/namespaces/inkscape"
   id="svg2829"
   height="128"
   width="128"
   version="1.0"
   sodipodi:docname="media-playback-pause.svg"
   inkscape:version="0.92.5 (2060ec1f9f, 2020-04-08)">
  <metadata
     id="metadata22">
    <rdf:RDF>
      <cc:Work
         rdf:about="">
        <dc:format>image/svg+xml</dc:format>
        <dc:type
           rdf:resource="http://purl.org/dc/dcmitype/StillImage" />
        <dc:title></dc:title>
      </cc:Work>
    </rdf:RDF>
  </metadata>
  <sodipodi:namedview
     pagecolor="#ffffff"
     bordercolor="#666666"
     borderopacity="1"
     objecttolerance="10"
     gridtolerance="10"
     guidetolerance="10"
     inkscape:pageopacity="0"
     inkscape:pageshadow="2"
     inkscape:window-width="4240"
     inkscape:window-height="2338"
     id="namedview20"
     showgrid="false"
     inkscape:zoom="10.429825"
     inkscape:cx="68.312011"
     inkscape:cy="63.523369"
     inkscape:window-x="144"
     inkscape:window-y="54"
     inkscape:window-maximized="1"
     inkscape:current-layer="svg2829" />
  <defs
     id="defs2831">
    <linearGradient
       id="linearGradient3615">
      <stop
         id="stop3617"
         style="stop-color:#eeeeec"
         offset="0" />
      <stop
         id="stop3619"
         style="stop-color:#babdb6"
         offset=".69580" />
      <stop
         id="stop3621"
         style="stop-color:#a1a59b"
         offset="1" />
    </linearGradient>
    <linearGradient
       id="linearGradient2782">
      <stop
         id="stop2784"
         style="stop-color:#fff"
         offset="0" />
      <stop
         id="stop2786"
         style="stop-color:#fff;stop-opacity:0"
         offset="1" />
    </linearGradient>
    <linearGradient
       id="linearGradient3627"
       y2="45.848999"
       xlink:href="#linearGradient3615"
       gradientUnits="userSpaceOnUse"
       x2="-11.448"
       gradientTransform="matrix(0.36755,0,0,0.36638,8.2056,-1.7938)"
       y1="10.344"
       x1="-11.448" />
    <linearGradient
       id="linearGradient3629"
       y2="52.939999"
       xlink:href="#linearGradient2782"
       gradientUnits="userSpaceOnUse"
       x2="10.44"
       gradientTransform="matrix(0.29583,0,0,0.33661,8.2499,-1.1702)"
       y1="9.9657001"
       x1="10.44" />
    <linearGradient
       id="linearGradient3635"
       y2="45.848999"
       xlink:href="#linearGradient3615"
       gradientUnits="userSpaceOnUse"
       x2="-11.448"
       gradientTransform="matrix(0.36755,0,0,0.36638,16.206,-1.7938)"
       y1="10.344"
       x1="-11.448" />
    <linearGradient
       id="linearGradient3637"
       y2="52.939999"
       xlink:href="#linearGradient2782"
       gradientUnits="userSpaceOnUse"
       x2="10.44"
       gradientTransform="matrix(0.29583,0,0,0.33661,16.25,-1.1702)"
       y1="9.9657001"
       x1="10.44" />
  </defs>
  <g
     id="g834"
     transform="matrix(9.053999,0,0,9.053999,-8.0544017,-8.8079711)">
    <g
       id="layer1">
      <path
         d="m 1.5004,1.5004 v 12.999 H 6.4997 V 1.5004 Z"
         style="fill:url(#linearGradient3627);fill-rule:evenodd;stroke:#888a86;stroke-width:1.0007;stroke-linecap:round;stroke-linejoin:round"
         id="path3623"
         inkscape:connector-curvature="0" />
      <path
         d="m 2.5007,2.5007 v 10.999 L 5.499,13.4843 V 2.5013 H 2.5007 Z"
         style="opacity:0.41000001;fill:none;stroke:url(#linearGradient3629);stroke-width:1.00129998;stroke-linecap:round;stroke-opacity:0.97254998"
         id="path3625"
         inkscape:connector-curvature="0" />
      <path
         d="m 9.5004,1.5004 v 12.999 h 4.9993 V 1.5004 Z"
         style="fill:url(#linearGradient3635);fill-rule:evenodd;stroke:#888a86;stroke-width:1.0007;stroke-linecap:round;stroke-linejoin:round"
         id="path3631"
         inkscape:connector-curvature="0" />
      <path
         d="m 10.501,2.5007 v 10.999 l 2.9983,-0.0154 V 2.5013 H 10.501 Z"
         style="opacity:0.41000001;fill:none;stroke:url(#linearGradient3637);stroke-width:1.00129998;stroke-linecap:round;stroke-opacity:0.97254998"
         id="path3633"
         inkscape:connector-curvature="0" />
    </g>
  </g>
</svg>
